images/js-badge.svg

<svg width="92" height="92" viewBox="0 0 92 92" fill="none" xmlns="http://www.w3.org/2000/svg">
<path d="M0 0H92V92H0V0Z" fill="#D1D2D6"/>
<path d="M24.1911 76.8823L31.2315 72.6215C32.5898 75.0298 33.8254 77.0673 36.7891 77.0673C39.63 77.0673 41.4211 75.956 41.4211 71.6335V42.2373H50.0667V71.7557C50.0667 80.7104 44.8178 84.7863 37.1597 84.7863C30.2435 84.7863 26.2288 81.2043 24.1909 76.8816" fill="#F5F6F7"/>
<path d="M54.7603 75.9546L61.7999 71.8787C63.653 74.9051 66.0615 77.1281 70.3224 77.1281C73.9047 77.1281 76.1891 75.337 76.1891 72.8668C76.1891 69.9025 73.8425 68.8525 69.89 67.1239L67.7292 66.1969C61.4914 63.5419 57.3536 60.2071 57.3536 53.1668C57.3536 46.6824 62.294 41.7417 70.0139 41.7417C75.5102 41.7417 79.4625 43.6563 82.303 48.6586L75.5715 52.9813C74.0893 50.326 72.4841 49.2764 70.014 49.2764C67.482 49.2764 65.8762 50.882 65.8762 52.9813C65.8762 55.5751 67.482 56.6253 71.1869 58.231L73.3482 59.1573C80.6972 62.3071 84.8351 65.518 84.8351 72.7432C84.8351 80.525 78.7213 84.7857 70.5079 84.7857C62.4796 84.7857 57.292 80.9571 54.7604 75.9546" fill="#F5F6F7"/>
</svg>

<svg width="92" height="92" fill="none" xmlns="http://www.w3.org/2000/svg"><path d="M0 0h92v92H0V0z" fill="#D1D2D6"/><path d="M24.191 76.882l7.04-4.26c1.359 2.408 2.594 4.445 5.558 4.445 2.841 0 4.632-1.111 4.632-5.433V42.236h8.646v29.519c0 8.954-5.25 13.03-12.907 13.03-6.916 0-10.931-3.582-12.97-7.904m30.57-.926l7.04-4.076c1.853 3.026 4.261 5.25 8.522 5.25 3.583 0 5.867-1.792 5.867-4.262 0-2.965-2.346-4.014-6.299-5.743l-2.16-.927c-6.239-2.655-10.376-5.99-10.376-13.03 0-6.485 4.94-11.425 12.66-11.425 5.496 0 9.449 1.914 12.289 6.917l-6.731 4.322c-1.483-2.655-3.088-3.705-5.558-3.705-2.532 0-4.138 1.606-4.138 3.705 0 2.594 1.606 3.644 5.31 5.25l2.162.926c7.35 3.15 11.487 6.361 11.487 13.586 0 7.782-6.114 12.043-14.327 12.043-8.028 0-13.216-3.829-15.748-8.831" fill="#F5F6F7"/></svg>
